X:19
T:Hanter Dro
R:Hanter Dro
C:Storvan
M:3/4
L:1/16
K:C
A2Bc d2c2 A4  |A2Bc e2d2 c2 B2 |\
A2Bc d2c2 A4  |A2Bc e2d2 c4 :|
|:A2Bc A2e2 e4  |d2cB A2cB A2 G2|\
A2Bc e2ed c3  c|ABcA d2dc A4 :|
